Catalina-dark/actions/16/distribute-graph-directed.svg

<?xml version="1.0" encoding="UTF-8" standalone="no"?>
<svg
   xmlns:dc="http://purl.org/dc/elements/1.1/"
   xmlns:cc="http://creativecommons.org/ns#"
   xmlns:rdf="http://www.w3.org/1999/02/22-rdf-syntax-ns#"
   xmlns:svg="http://www.w3.org/2000/svg"
   xmlns="http://www.w3.org/2000/svg"
   xmlns:sodipodi="http://sodipodi.sourceforge.net/DTD/sodipodi-0.dtd"
   xmlns:inkscape="http://www.inkscape.org/namespaces/inkscape"
   width="16"
   height="16"
   viewBox="0 0 16 16"
   version="1.1"
   id="svg7"
   sodipodi:docname="distribute-graph-directed.svg"
   inkscape:version="0.92.4 5da689c313, 2019-01-14">
  <metadata
     id="metadata11">
    <rdf:RDF>
      <cc:Work
         rdf:about="">
        <dc:format>image/svg+xml</dc:format>
        <dc:type
           rdf:resource="http://purl.org/dc/dcmitype/StillImage" />
      </cc:Work>
    </rdf:RDF>
  </metadata>
  <sodipodi:namedview
     pagecolor="#ffffff"
     bordercolor="#666666"
     borderopacity="1"
     objecttolerance="10"
     gridtolerance="10"
     guidetolerance="10"
     inkscape:pageopacity="0"
     inkscape:pageshadow="2"
     inkscape:window-width="640"
     inkscape:window-height="480"
     id="namedview9"
     showgrid="false"
     inkscape:zoom="14.75"
     inkscape:cx="6.8135593"
     inkscape:cy="8"
     inkscape:window-x="0"
     inkscape:window-y="26"
     inkscape:window-maximized="0"
     inkscape:current-layer="svg7" />
  <defs
     id="defs3">
    <style
       id="current-color-scheme"
       type="text/css">
   .ColorScheme-Text { color:#5c616c; } .ColorScheme-Highlight { color:#5294e2; }
  </style>
  </defs>
  <path
     style="fill:#f1f6f8;fill-opacity:0.8509804"
     class="ColorScheme-Text"
     d="M 1.5039062 0.005859375 A 1.5 1.5 0 0 0 0.00390625 1.5058594 A 1.5 1.5 0 0 0 1.5039062 3.0058594 A 1.5 1.5 0 0 0 3.0039062 1.5058594 A 1.5 1.5 0 0 0 1.5039062 0.005859375 z M 14.503906 0.005859375 A 1.5 1.5 0 0 0 13.003906 1.5058594 A 1.5 1.5 0 0 0 14.503906 3.0058594 A 1.5 1.5 0 0 0 16.003906 1.5058594 A 1.5 1.5 0 0 0 14.503906 0.005859375 z M 12.785156 2.5683594 L 8.9394531 6.7558594 L 9.6894531 7.4433594 L 13.535156 3.2558594 C 13.393496 3.1204694 13.061756 2.8330494 12.785156 2.5683594 z M 3.2226562 2.6308594 L 2.4726562 3.3183594 L 6.28125 7.4199219 L 7.0351562 6.7246094 L 3.2226562 2.6308594 z M 8.0019531 7.0058594 A 1.5 1.5 0 0 0 6.5019531 8.5058594 A 1.5 1.5 0 0 0 8.0019531 10.005859 A 1.5 1.5 0 0 0 9.5019531 8.5058594 A 1.5 1.5 0 0 0 8.0019531 7.0058594 z M 7.5019531 10.443359 L 7.5019531 12.568359 L 8.5019531 12.568359 L 8.5019531 10.443359 C 8.1048131 10.447359 7.7971631 10.444059 7.5019531 10.443359 z M 8.0019531 13.005859 A 1.5 1.5 0 0 0 6.5019531 14.505859 A 1.5 1.5 0 0 0 8.0019531 16.005859 A 1.5 1.5 0 0 0 9.5019531 14.505859 A 1.5 1.5 0 0 0 8.0019531 13.005859 z"
     id="path5" />
</svg>

<svg width="16" height="16" version="1.1" viewBox="0 0 16 16" xmlns="http://www.w3.org/2000/svg">
<defs>
<style id="current-color-scheme" type="text/css">.ColorScheme-Text { color:#5c616c; } .ColorScheme-Highlight { color:#5294e2; }</style>
</defs>
<path class="ColorScheme-Text" d="m1.5039 0.0058594a1.5 1.5 0 0 0-1.5 1.5 1.5 1.5 0 0 0 1.5 1.5 1.5 1.5 0 0 0 1.5-1.5 1.5 1.5 0 0 0-1.5-1.5zm13 0a1.5 1.5 0 0 0-1.5 1.5 1.5 1.5 0 0 0 1.5 1.5 1.5 1.5 0 0 0 1.5-1.5 1.5 1.5 0 0 0-1.5-1.5zm-1.7188 2.5625-3.8457 4.1875 0.75 0.6875 3.8457-4.1875c-0.14166-0.13539-0.4734-0.42281-0.75-0.6875zm-9.5625 0.0625-0.75 0.6875 3.8086 4.1016 0.75391-0.69531-3.8125-4.0938zm4.7793 4.375a1.5 1.5 0 0 0-1.5 1.5 1.5 1.5 0 0 0 1.5 1.5 1.5 1.5 0 0 0 1.5-1.5 1.5 1.5 0 0 0-1.5-1.5zm-0.5 3.4375v2.125h1v-2.125c-0.39714 4e-3 -0.70479 7e-4 -1 0zm0.5 2.5625a1.5 1.5 0 0 0-1.5 1.5 1.5 1.5 0 0 0 1.5 1.5 1.5 1.5 0 0 0 1.5-1.5 1.5 1.5 0 0 0-1.5-1.5z" fill="#dedede" fill-opacity=".85098"/>
</svg>
